X:1
T:Vivaldi - Summer (The Four Seasons) - Rousseau
T:Vivaldi - Summer (The Four Seasons) - Rousseau
T:Antonio Vivaldi
C:Antonio Vivaldi
%%score { ( 1 3 ) | 2 }
L:1/8
Q:1/4=150
M:3/4
K:Bb
V:1 treble nm="Piano" snm="Pno."
V:3 treble 
V:2 bass 
V:1
!f! [Gg]/ z/ z z4 | [Ff]/ z/ z z4 | [Ee]/ z/ z z4 | [Dd]/ z/ z z4 | z6 | [Dd]/ z/ z z4 | %6
 [Cc]/ z/ z z4 | [B,B]/ z/ z z4 | [A,A]/ z/ z z4 | d/c/B/A/ G/^F/=E/D/ C/B,/A,/G,/ | %10
 z/ d/c/B/ A/G/^F/=E/ D/C/B,/A,/ | z/ g/f/e/ d/c/B/A/ G/F/E/D/ | C/g/f/e/ d/c/B/A/ G/F/E/D/ | %13
 C/b/a/g/ f/e/d/c/ B/A/G/F/ |[K:Bb] E/b/a/g/ f/e/d/c/ B/A/G/F/ | E/d'/c'/b/ a/g/^f/=e/ d/c/B/A/ | %16
 G/d'/c'/b/ a/g/^f/=e/ d/c/B/A/ | G/d'/c'/b/ a/g/^f/=e/ d/c/B/A/ | G/d'/c'/b/ a/g/^f/=e/ d/c/B/A/ | %19
 [Gd]/G/G/G/ d/G/G/G/ d/G/G/G/ | z/ [^FA]/[GB]/[Ac]/ [Bd]/[c=e]/[d^f]/[eg]/ [fa] z | %21
 z/ [^FA]/[GB]/[Ac]/ [Bd]/[c=e]/[d^f]/[eg]/ [fa] z | z/ [GB]/[Ac]/[Bd]/ e/[d^f]/[eg]/[fa]/ [gb] z | %23
 z/ [^Fd]/[G=e]/[A^f]/ g/[ca]/[db]/c'/ [fd'] z | z/ [^Fd]/[G=e]/[A^f]/ g/[ca]/[db]/c'/ [fd'] z | %25
 z/ [^FA]/[GB]/[Ac]/ [Bd]/[c=e]/[d^f]/[eg]/ [fa] z | z/ [GB]/[Ac]/[Bd]/ e/[d^f]/[eg]/[fa]/ [gb] z | %27
 z/ [^Fd]/[G=e]/[A^f]/ g/[ca]/[db]/c'/ [fd'] z | b/g/d/B/ b/g/d/B/ b/g/d/B/ | %29
 d/B/G/D/ d/B/G/D/ d/B/G/D/ | G/D/B,/G,/ G/D/B,/G,/ G/D/B,/G,/ | %31
!p! [F=B]/D/[FB]/D/ [FB]/D/[FB]/D/ [FB]/D/[FB]/D/ | %32
[K:Bb]!mf! [Ec]/C/[Ec]/C/ [Ec]/C/[Ec]/C/ [Ec]/C/[Ec]/C/ | %33
 [G^c]/=E/[Gc]/E/ [Gc]/E/[Gc]/E/ [Gc]/E/[Gc]/E/ | [Fd]/D/[Fd]/D/ [Fd]/D/[Fd]/D/ [Fd]/D/[Fd]/D/ | %35
 [Ad]/=E/[Ad]/E/ [Ad]/E/[Ad]/E/ [Ad]/E/[Ad]/E/ | [A^c]/=E/[Ac]/E/ [Ac]/E/[Ac]/E/ [Ac]/E/[Ac]/E/ | %37
 [FAd]/D/=E/F/ G/A/=B/^c/ d/A/B/c/ | d/=e/f/g/ a/d/e/f/ g/a/=b/^c'/ | %39
[K:F][Q:1/4=30] !fermata!d'2 z/[Q:1/4=140]!8va(! a/a/^c'/ c'/e'/e'/a'/ | %40
!p! a'/a/ z/ a/ g'/a/ z/ a/ f'/a/ z/ a/ | e'/a/ z/ a/ f'/a/ z/ a/ g'/a/ z/ a/ | %42
 a'/a/ z/ a/ g'/a/ z/ a/ f'/a/ z/ a/ |[Q:1/4=30] !fermata![ae']2 z/[Q:1/4=140] d/d/f/ f/a/a/d'/ | %44
 d'/d/ z/ d/ c'/d/ z/ d/ b/d/ z/ d/ | a/d/ z/ d/ b/d/ z/ d/ ^c'/d/ z/ d/ | %46
 d'/d/ z/ d/ c'/d/ z/ d/ b/d/ z/ d/ | %47
[Q:1/4=30] !fermata![da]2 z/[Q:1/4=140] a'/a'/g'/ g'/f'/f'/_e'/ | %48
 _e'/d'/d'/c'/ c'/b/b/!8va)!a/ a/g/g/f/ | f/e/e/d/ d/c/c/B/ B/A/A/^G/ | .A.^G .A.G .A.F | %51
 .G.E .F.D .E.^C |!mf!!<(! .D.^C .D.C .D.C | .D.^C .D.C .D!<)!.C |!f! .[DFA].D .D.[Ad] .[df].[fa] | %55
 .[gb].D .D.[Bd] .[dg].[gb] | .[gb].[CE] .[CE].[ce] .[eg].[gb] | .[fa].[CF] .[CF].[Ac] .[cf].[fa] | %58
 .[fa].[B,D] .[B,D].[Bd] .[df].[fa] | .[_eg].[B,_E] .[B,E].[GB] .[Be].[eg] | %60
 .[_eg].[_A,C] .[A,C].[_Ac] .[ce].[eg] | .[dg].[=B,D] .[B,D].[G=B] .[Bd].[dg] | %62
 .[df].[=B,D] .[B,D].[G=B] .[Bd].[df] |[K:Eb] e/E/F/G/ A/=B/c/d/ e z | z/ E/F/G/ A/=B/c/d/ e z | %65
 z/ E/F/G/ A/=B/c/d/ e z | E/c/B/c/ E/c/B/c/ E/c/B/c/ | F/c/B/c/ F/c/B/c/ F/c/B/c/ | %68
 G/c/=B/c/ G/c/B/c/ G/B/=A/B/ | [Cc]/ z/ z z4 | [B,B]/ z/ z z4 | [A,A]/ z/ z z4 | %72
 [G,G]/ z/ z z4[Q:1/4=30] |[Q:1/4=150]!p! g6 | g6 | g6 | f6 | g6 | e/G/g/A/ a/B/b/c/ c'/d/d'/e/ | %79
!mf! e'/b/g/e/ e'/b/g/e/ e'/b/g/e/ |!p! f/A/a/B/ b/c/c'/d/ d'/e/e'/f/ | %81
!mf! f'/c'/=a/f/ f'/c'/a/f/ f'/c'/a/f/ |!p! g/B/b/c/ c'/d/d'/e/ e'/f/f'/g/ | %83
!mf! g'/d'/=b/g/ g'/d'/b/g/ g'/d'/b/g/ |!f! [ee']/ z/ z z4 | [A,A]/ z/ z [A,A]/ z/ z [A,A]/ z/ z | %86
 z6 | [G,G]/ z/ z [G,G]/ z/ z [G,G]/ z/ z |[K:Eb] z6 | [F,F]/ z/ z [F,F]/ z/ z [F,F]/ z/ z | z6 | %91
 [Ee]/ z/ z [Ee]/ z/ z [Ee]/ z/ z | z6 | [Dd]/ z/ z [Dd]/ z/ z [Dd]/ z/ z | z6 | %95
 [Cc]/ z/ z [Cc]/ z/ z [Cc]/ z/ z |!p! D/D/D/D/ ^F/D/D/D/ =A/D/D/D/ | %97
"_cresc." B/D/D/D/ c/D/D/D/ d/D/D/D/ | e/D/D/D/ ^f/D/D/D/ g/D/D/D/ | =a/D/D/D/ b/D/D/D/ c'/D/D/D/ | %100
 d'/d/c/B/ =A/G/^F/=E/ D/C/B,/=A,/ |[K:Bb]!f! G,/d/c/B/ A/G/^F/=E/ D/C/B,/A,/ | %102
 G,/g/f/e/ d/c/B/A/ G/F/E/D/ | C/g/f/e/ d/c/B/A/ G/F/E/D/ | C/b/a/g/ f/e/d/c/ B/A/G/F/ | %105
 E/b/a/g/ f/e/d/c/ B/A/G/F/ | E/d'/c'/b/ a/g/^f/=e/ d/c/B/A/ | G/d'/c'/b/ a/g/^f/=e/ d/c/B/A/ | %108
!p! d/G/ z/ G/ e/G/ z/ G/ ^f/G/ z/ G/ | g/G/ z/ G/ f/G/ z/ G/ e/G/ z/ G/ | %110
 d/G/ z/ G/ e/G/ z/ G/ ^f/G/ z/ G/ | g/G/ z/ G/ f/G/ z/ G/ e/G/ z/ G/ | %112
!f! [Gd]/G/A/B/ c/d/=e/_g/ =g/a/b/a/ | g/f/e/d/ c/B/A/G/ _G/=E/D/C/ | %114
 B,/G,/B,/G,/ B,/G,/B,/G,/ B,/G,/B,/G,/ | E/D/^F/=E/ G/_G/A/=G/ B/A/c/B/ | %116
 d/c/e/d/ ^f/=e/g/f/ a/g/b/a/ | E/D/^F/=E/ G/_G/A/=G/ B/A/c/B/ | %118
 d/c/e/d/ ^f/=e/g/f/ a/g/b/[Q:1/4=20]!fermata!a/ |[Q:1/4=150] z2 z/ d/c/B/ A/G/^F/=E/ | %120
 G/D/B,/G,/ G/D/B,/G,/ G/D/B,/G,/ | [EG]/A,/[EG]/A,/ [EG]/A,/[EG]/A,/ [EG]/A,/[EG]/A,/ | %122
 [D^F]/A,/[DF]/A,/ [DF]/A,/[DF]/A,/ [DF]/A,/[DF]/A,/ | G/D/B,/G,/ G/D/B,/G,/ G/D/B,/G,/ | %124
 [EG]/A,/[EG]/A,/ [EG]/A,/[EG]/A,/ [EG]/A,/[EG]/A,/ | %125
 [D^F]/A,/[DF]/A,/ [DF]/A,/[DF]/A,/ [DF]/A,/[DF]/A,/ | %126
 [DG]/B,/[DG]/B,/ [GB]/D/[GB]/D/ [Bd]/G/[Bd]/G/ | [dg]/B/[dg]/B/ [gb]/d/[gb]/d/ [gb]/d/[gb]/d/ | %128
 [dg]/B/[dg]/B/ [Bd]/G/[Bd]/G/ [GB]/D/[GB]/D/ | [G,G]6- | [G,G]6 |] %131
V:2
 [G,,G,]/[G,G]/[G,,G,]/[G,G]/ [G,,G,]/[G,G]/[G,,G,]/[G,G]/ [G,,G,]/[G,G]/[G,,G,]/[G,G]/ | %1
 [G,,G,]/[G,G]/[G,,G,]/[G,G]/ [G,,G,]/[G,G]/[G,,G,]/[G,G]/ [G,,G,]/[G,G]/[G,,G,]/[G,G]/ | %2
 [G,,G,]/[G,G]/[G,,G,]/[G,G]/ [G,,G,]/[G,G]/[G,,G,]/[G,G]/ [G,,G,]/[G,G]/[G,,G,]/[G,G]/ | %3
 [G,,G,]/[G,G]/[G,,G,]/[G,G]/ [G,,G,]/[G,G]/[G,,G,]/[G,G]/ [G,,G,]<[G,G] | z6 | %5
 [D,,D,]/[D,D]/[D,,D,]/[D,D]/ [D,,D,]/[D,D]/[D,,D,]/[D,D]/ [D,,D,]/[D,D]/[D,,D,]/[D,D]/ | %6
 [D,,D,]/[D,D]/[D,,D,]/[D,D]/ [D,,D,]/[D,D]/[D,,D,]/[D,D]/ [D,,D,]/[D,D]/[D,,D,]/[D,D]/ | %7
 [D,,D,]/[D,D]/[D,,D,]/[D,D]/ [D,,D,]/[D,D]/[D,,D,]/[D,D]/ [D,,D,]/[D,D]/[D,,D,]/[D,D]/ | %8
 [D,,D,]/[D,D]/[D,,D,]/[D,D]/ [D,,D,]/[D,D]/[D,,D,]/[D,D]/ [D,,D,]<[D,D] | z6 | %10
 G,,/G,/G,,/G,/ G,,/G,/G,,/G,/ G,,/G,/G,,/G,/ | G,,/G,/G,,/G,/ G,,/G,/G,,/G,/ G,,/G,/G,,/G,/ | %12
 C,/C/C,/C/ C,/C/C,/C/ C,/C/C,/C/ | C,/C/C,/C/ C,/C/C,/C/ C,/C/C,/C/ | %14
[K:Bb] E,/E/E,/E/ E,/E/E,/E/ E,/E/E,/E/ | E,/E/E,/E/ E,/E/E,/E/ E,/E/E,/E/ | %16
 G,/G/G,/G/ G,/G/G,/G/ G,/G/G,/G/ | G,/G/G,/G/ G,/G/G,/G/ G,/G/G,/G/ | %18
 G,/G/G,/G/ G,/G/G,/G/ G,/G/G,/G/ | G,/ z/ z G,/ z/ z G,/ z/ z | D,/D/D,/D/ D,/D/D,/D/ D,/D/D,/D/ | %21
 D,/C/D,/C/ D,/C/D,/C/ D,/C/D,/C/ | D,/B,/D,/B,/ D,/B,/D,/B,/ D,/B,/D,/B,/ | %23
 D,/A,/D,/A,/ D,/A,/D,/A,/ D,/A,/D,/A,/ | D,/D/D,/D/ D,/D/D,/D/ D,/D/D,/D/ | %25
 D,/C/D,/C/ D,/C/D,/C/ D,/C/D,/C/ | D,/B,/D,/B,/ D,/B,/D,/B,/ D,/B,/D,/B,/ | %27
 D,/A,/D,/A,/ D,/A,/D,/A,/ D,/A,/D,/A,/ | G,,/G,/D,/G,/ G,,/G,/D,/G,/ G,,/G,/D,/G,/ | %29
 G,,/G,/D,/G,/ G,,/G,/D,/G,/ G,,/G,/D,/G,/ | G,,/ z/ D,/ z/ G,,/ z/ D,/ z/ G,,/ z/ D,/ z/ | %31
 G,,/G,/G,,/G,/ G,,/G,/G,,/G,/ G,,/G,/G,,/G,/ | %32
[K:Bb] C,,/C,/C,,/C,/ C,,/C,/C,,/C,/ C,,/C,/C,,/C,/ | %33
 A,,/A,/A,,/A,/ A,,/A,/A,,/A,/ A,,/A,/A,,/A,/ | D,,/D,/D,,/D,/ D,,/D,/D,,/D,/ D,,/D,/D,,/D,/ | %35
 A,,,/A,,/A,,,/A,,/ A,,,/A,,/A,,,/A,,/ A,,,/A,,/A,,,/A,,/ | %36
 A,,,/A,,/A,,,/A,,/ A,,,/A,,/A,,,/A,,/ A,,,/A,,/A,,,/A,,/ | [D,,D,]/ z/ z z4 | z6 | %39
[K:F] !fermata![D,F]2 z2 z2 | z D/ z/ z D/ z/ z D/ z/ | z D/ z/ z D/ z/ z D/ z/ | %42
 z D/ z/ z D/ z/ z D/ z/ | !fermata!D2 z4 | z D/ z/ z D/ z/ z D/ z/ | z D/ z/ z D/ z/ z D/ z/ | %46
 z D/ z/ z D/ z/ z D/ z/ | !fermata!D2 z4 | z6 | z6 | z/ D/ z/ D,/ z/ D/ z/ D,/ z/ D/ z/ D,/ | %51
 z/ D/ z/ D,/ z/ D/ z/ D,/ z/ D/ z/ D,/ | z/ D,/ z/ A,,/ z/ D,/ z/ A,,/ z/ D,/ z/ A,,/ | %53
 z/ D,/ z/ A,,/ z/ D,/ z/ A,,/ z/ D,/ z/ A,,/ | D,,/D,/C,/B,,/ A,,/G,,/F,,/E,,/ D,,/ z/ z | %55
 G,,/G,/F,/_E,/ D,/C,/B,,/A,,/ G,,/ z/ z | C,,/C,/B,,/A,,/ G,,/F,,/E,,/D,,/ C,,/ z/ z | %57
 F,,/F,/E,/D,/ C,/B,,/A,,/G,,/ F,,/ z/ z | B,,,/B,,/A,,/G,,/ F,,/_E,,/D,,/C,,/ B,,,/ z/ z | %59
 _E,,/_E,/D,/C,/ B,,/A,,/G,,/F,,/ E,,/ z/ z | _A,,,/_A,,/G,,/F,,/ _E,,/D,,/C,,/B,,,/ A,,,/ z/ z | %61
 =B,,,/=B,,/A,,/G,,/ F,,/_E,,/D,,/C,,/ B,,,/ z/ z | %62
 G,,,/G,,/F,,/_E,,/ D,,/C,,/=B,,,/A,,,/ G,,,/ z/ z |[K:Eb] C,/C/B,/A,/ G,/F,/E,/D,/ C,/C/G,/E,/ | %64
 C,/C/B,/A,/ G,/F,/E,/D,/ C,/C/G,/E,/ | C,/C/B,/A,/ G,/F,/E,/D,/ C,/C/G,/E,/ | %66
 .E,,.E, .E,,.E, .E,,.E, | .F,,.F, .F,,.F, .F,,.F, | .G,,.G, .G,,.G, .G,,.G, | %69
 [C,,C,]/[C,C]/[C,,C,]/[C,C]/ [C,,C,]/[C,C]/[C,,C,]/[C,C]/ [C,,C,]/[C,C]/[C,,C,]/[C,C]/ | %70
 [C,,C,]/[C,C]/[C,,C,]/[C,C]/ [C,,C,]/[C,C]/[C,,C,]/[C,C]/ [C,,C,]/[C,C]/[C,,C,]/[C,C]/ | %71
 [C,,C,]/[C,C]/[C,,C,]/[C,C]/ [C,,C,]/[C,C]/[C,,C,]/[C,C]/ [C,,C,]/[C,C]/[C,,C,]/[C,C]/ | %72
 [C,,C,]/[C,C]/[C,,C,]/[C,C]/ [C,,C,]/[C,C]/[C,,C,]/[C,C]/ [C,,C,]<!fermata![C,C] | %73
 .C,C/=B,/ .C.C, .C,.C | .G,, z/ z/ z4 | .C,C/=B,/ .C.C, .C,.C | .B,, z z4 | %77
 .E,,E,/D,/ .E,.E,, .E,,.E, | G,,6 | .G,,G,/F,/ .G,.G,, .G,,.G, | A,,6 | %81
 .=A,,=A,/G,/ .A,.A,, .A,,.A, | B,,6 | .=B,,=B,/=A,/ .B,.B,, .B,,.B, | %84
 [C,,C,]/[C,C]/[C,,C,]/[C,C]/ [C,,C,]/[C,C]/[C,,C,]/[C,C]/ [C,,C,]/[C,C]/[C,,C,]/[C,C]/ | %85
 z/ [C,,C,]/[C,C]/[C,,C,]/ z/ [C,,C,]/[C,C]/[C,,C,]/ z/ [C,,C,]/[C,C]/[C,,C,]/ | %86
 [=B,,=B,]/[=B,,,B,,]/[B,,B,]/[B,,,B,,]/ [B,,B,]/[B,,,B,,]/[B,,B,]/[B,,,B,,]/ [B,,B,]/[B,,,B,,]/[B,,B,]/[B,,,B,,]/ | %87
 z/ [B,,,B,,]/[B,,B,]/[B,,,B,,]/ z/ [B,,,B,,]/[B,,B,]/[B,,,B,,]/ z/ [B,,,B,,]/[B,,B,]/[B,,,B,,]/ | %88
[K:Eb] [=A,,=A,]/[=A,,,A,,]/[A,,A,]/[A,,,A,,]/ [A,,A,]/[A,,,A,,]/[A,,A,]/[A,,,A,,]/ [A,,A,]/[A,,,A,,]/[A,,A,]/[A,,,A,,]/ | %89
 z/ [A,,,A,,]/[A,,A,]/[A,,,A,,]/ z/ [A,,,A,,]/[A,,A,]/[A,,,A,,]/ z/ [A,,,A,,]/[A,,A,]/[A,,,A,,]/ | %90
 [G,,G,]/[G,,,G,,]/[G,G]/[G,,G,]/ [G,G]/[G,,G,]/[G,G]/[G,,G,]/ [G,G]/[G,,G,]/[G,G]/[G,,G,]/ | %91
 z/ [G,,G,]/[G,G]/[G,,G,]/ z/ [G,,G,]/[G,G]/[G,,G,]/ z/ [G,,G,]/[G,G]/[G,,G,]/ | %92
 [^F,^F]/[^F,,F,]/[F,F]/[F,,F,]/ [F,F]/[F,,F,]/[F,F]/[F,,F,]/ [F,F]/[F,,F,]/[F,F]/[F,,F,]/ | %93
 z/ [F,,F,]/[F,F]/[F,,F,]/ z/ [F,,F,]/[F,F]/[F,,F,]/ z/ [F,,F,]/[F,F]/[F,,F,]/ | %94
 [=E,=E]/[=E,,E,]/[E,E]/[E,,E,]/ [E,E]/[E,,E,]/[E,E]/[E,,E,]/ [E,E]/[E,,E,]/[E,E]/[E,,E,]/ | %95
 z/ [E,,E,]/[E,E]/[E,,E,]/ z/ [E,,E,]/[E,E]/[E,,E,]/ z/ [E,,E,]/[E,E]/[E,,E,]/ | D,6- | D,6- | %98
 D,6- | D,6 | z6 |[K:Bb] G,,/G,/G,,/G,/ G,,/G,/G,,/G,/ G,,/G,/G,,/G,/ | %102
 G,,/G,/G,,/G,/ G,,/G,/G,,/G,/ G,,/G,/G,,/G,/ | C,/C/C,/C/ C,/C/C,/C/ C,/C/C,/C/ | %104
 C,/C/C,/C/ C,/C/C,/C/ C,/C/C,/C/ | E,/E/E,/E/ E,/E/E,/E/ E,/E/E,/E/ | %106
 E,/E/E,/E/ E,/E/E,/E/ E,/E/E,/E/ | G,/G/G,/G/ G,/G/G,/G/ G,/G/G,/G/ | .G,.G,, .G,.G,, .G,.G,, | %109
 .G,.G,, .G,.G,, .G,.G,, | .G,.G,, .G,.G,, .G,.G,, | .G,.G,, .G,.G,, .G,.G,, | [G,,G,]2 z4 | z6 | %114
 .B,,.G,, .B,,.G,, .B,,.G,, | [D,,D,]6 | z6 | z6 | z6 | [D,D]/D/C/B,/ A,/B,/A,/G,/ ^F,/=E,/D,/C,/ | %120
 .B,,,.B,, .B,,,.B,, .B,,,.B,, | C,,/C,/C,,/C,/ C,,/C,/C,,/C,/ C,,/C,/C,,/C,/ | %122
 D,,/D,/D,,/D,/ D,,/D,/D,,/D,/ D,,/D,/D,,/D,/ | .G,,,.G,, .B,,,.B,, .B,,,.B,, | %124
 C,,/C,/C,,/C,/ C,,/C,/C,,/C,/ C,,/C,/C,,/C,/ | D,,/D,/D,,/D,/ D,,/D,/D,,/D,/ D,,/D,/D,,/D,/ | %126
 G,,,/G,,/G,,,/G,,/ G,,,/G,,/G,,,/G,,/ G,,,/G,,/G,,,/G,,/ | %127
 G,,,/G,,/G,,,/G,,/ G,,,/G,,/G,,,/G,,/ G,,,/G,,/G,,,/G,,/ | %128
 G,,,/G,,/G,,,/G,,/ G,,,/G,,/G,,,/G,,/ G,,,/G,,/G,,,/G,,/ | [G,,,G,,]6- | [G,,,G,,]6 |] %131
V:3
 x6 | x6 | x6 | x6 | x6 | x6 | x6 | x6 | x6 | x6 | x6 | x6 | x6 | x6 |[K:Bb] x6 | x6 | x6 | x6 | %18
 x6 | x6 | x6 | x6 | x6 | x6 | x6 | x6 | x6 | x6 | x6 | x6 | x6 | x6 |[K:Bb] x6 | x6 | x6 | x6 | %36
 x6 | x6 | x6 |[K:F] x5/2!8va(! x7/2 | x6 | x6 | x6 | x6 | x6 | x6 | x6 | x6 | x7/2!8va)! x5/2 | %49
 x6 | x6 | x6 | x6 | x6 | x6 | x6 | x6 | x6 | x6 | x6 | x6 | x6 | x6 |[K:Eb] x6 | x6 | x6 | x6 | %67
 x6 | x6 | x6 | x6 | x6 | x6 | e/c/e/c/ e/c/e/c/ e/c/e/c/ | d/=B/d/B/ d/B/d/B/ d/B/d/B/ | %75
 e/c/e/c/ e/c/e/c/ e/c/e/c/ | d/B/d/B/ d/B/d/B/ d/B/d/B/ | e/B/e/B/ e/B/e/B/ e/B/e/B/ | x6 | x6 | %80
 x6 | x6 | x6 | x6 | x6 | x6 | x6 | x6 |[K:Eb] x6 | x6 | x6 | x6 | x6 | x6 | x6 | x6 | x6 | x6 | %98
 x6 | x6 | x6 |[K:Bb] x6 | x6 | x6 | x6 | x6 | x6 | x6 | x6 | x6 | x6 | x6 | x6 | x6 | x6 | x6 | %116
 x6 | x6 | x6 | x6 | x6 | x6 | x6 | x6 | x6 | x6 | x6 | x6 | x6 | x6 | x6 |] %131

